X: 1
T:Ducks on the Pond
M:4/4
L:1/8
R:Reel
K:G
"Am"[A,4 E4] [A4 e4] | edef g4 | "G" B2 Bc BAGA | BABc BA G2 |
"Am"[A,4E4] [A4e4] | edef gaba | "G"g2 e2 d2 B2 |1"Am"A2>B2 A4 :|2"Am"A2>B2 A2||
|:e2|"Am"aebea2g2|edef g2 g2-|"G"gfga bagf|edeg ag e2|
"Am"aebea2g2|edef g2 ba|"G" g2e2d2B2|1"Am"A2>B2 A2:|2"Am"A2>B2 A4|]
